X:1
T:6 Gedichte, Op.8
T:Rheinsage
T:der Frau Emilie von Henning geb. Krutisch hochachtungsvoll zugeeignet
T:2. Rheinsage
T:Johanna Kinkel
T:6 Gedichte, Op.8 
T:Emanuel Geibel
T:Creative Commons copyright waiver (CC0 1.0 Universal)
T:Creative Commons copyright waiver (CC0 1.0 Universal)
C:Johanna Kinkel (originally published under the name Johanna Mathieux)
Z:Emanuel Geibel
Z:Creative Commons copyright waiver (CC0 1.0 Universal)
%%score ( 1 2 ) { ( 3 5 ) | 4 }
L:1/8
Q:1/4=60
M:4/4
K:Bb
V:1 treble nm="Singstimme\nVoice"
V:2 treble 
V:3 treble nm="Pianoforte"
V:5 treble 
V:4 bass 
V:1
"^Lento maestoso" D2 | G3 G G2 A2 | (B3 c) d2 c2 | B2 AG A2 D2 | G4 z2 D2 | G3 G G2 A2 | %6
w: Am|Rhein, am grü- nen|Rhei- * ne, da|ist so * mild die|Nacht! die|Re- ben- hü- gel|
w: Das|ist der Carl der|Kai- * ser, der|mit ge- * walt'- ger|Hand vor|vie- len hun- dert|
w: Bei|Rü- des- heim da|fun- * kelt der|Mond in's * Was- ser|* und|* * gold'- ne|
w: Dann|kehrt er heim nach|Aa- * chen und|schläft in * sei- ner|Gruft, bis|ihn im neu- en|
 (B3 c) d2 cd | e3 d !>!d3 c | B4 z2 B2 | %9
w: lie- * gen in *|gold'- ner Mon- des-|pracht. Und|
w: Jah- * ren ge- *|herrscht im deut- schen|Land. Er|
w: Brü- * cke wohl *|* * grü- nen|Rhein. Der|
w: Jah- * re er- *|weckt der Trau- ben|Duft. *|
"^NB. Von hier an muss die letzte Strophe stärker und lebhafter gesungen werden.\n       \nFrom this point the last verse must be sung in a stronger and more lively way.\n" B2 _G2 _D3 D | %10
w: an den Hü- geln|
w: ist her- auf ge-|
w: Kai- ser geht hin-|
w: * * * die|
 (_D3 E) D2 z D | _G2 _D2 _A2 _d2 | __B4 z2 =A2 | G2 ^F2 G2 A2 | (B3 c) d2 c2 | B2{cB} A G A2 D2 | %16
w: wan- * delt ein|ho- her Schat- ten|her mit|Schwert und Pur- pur-|man- * tel, die|Kro- ne von Gol- de|
w: stie- * gen zu|Aa- chen aus der|Gruft und|seg- nget sei- ne|Re- * ben und|at- * met Trau- ben-|
w: ü- * ber und|schrei- tet lang- sam|fort, und|seg- nget längs dem|Stro- * me die|Re- ben an je- dem|
w: Rö- * mer und|* * gold'- nen|Saft und|deut- sches Hel- den-|feu- * er und|deut- * sche Hel- den-|
 G4 !fermata!z2 :| %17
w: schwer.|
w: duft.|
w: Ort.|
w: kraft.|
V:2
 x2 | x8 | x8 | x4 x2 D D | G4 x4 | G2 G G x4 | x8 | e2 e d x4 | B4 z4 | x2 _G G _D2 D D | x8 | %11
w: |||||||||||
w: |||||||||||
w: |||* hin-|ein|baut ei- ne||ü- ber den||||
w: |||||||||a- ber fül- len *||
 x2 _D D x4 | x8 | x8 | x8 | x8 | x6 :| %17
w: ||||||
w: ||||||
w: ||||||
w: ken im||||||
V:3
 z2 |!pp!"_tremul." !///![B,DG]4 !///![B,EG]4 | !///![B,DF]6 !///![A,EA]2 | %3
 !///![B,DG]4 !///![A,CG]2 !///![A,C^F]2 |!<(! !///![B,DG]8!<)! | %5
 !///!!>![B,DG]4 !///!!>![CEG]2 !///!!>![CE=A]2 | !///![B,D_A]4 !///![B,FA]4 | %7
 !///![B,EG]4 !///![=A,EF]4 | !///![B,DF]6 !///![_DFB]2 |!pp! !///![_D_GB_d]4 !///![D_A_cd]4 | %10
 !///![_D_GB_d]8 | !///![_D_GB_d]4 !///![DF_Ad]4 | !///![_D_G__B_d]4 !///![C^F=Ac]4 | %13
 !///![B,DGB]2 [CE^FA] z !///![B,DG]2 [CEG] z |!f! !///![DFB]6 !///![EGA]2 | %15
!>(! !///![B,DA]4!>)! !///![A,CG]2!p! !///![A,C^F]2 |!<(! !///!!fermata![G,B,G]6!<)! :| %17
V:4
 z2 | !///![G,,G,]4 !///![E,,E,]4 | !///![B,,,B,,]6 !///![C,,C,]2 | !///![D,,D,]8 | %4
 !///![G,,,G,,]8 | !///!!>![G,,G,]4 !///!!>![C,,C,]2 !///!!>![F,,F,]2 | !///![B,,,B,,]8 | %7
 !///![E,,E,]4 !///![F,,F,]4 | !///![B,,F,]8 | !///![_G,,_G,]4 !///![F,,_D,F,]4 | %10
 !///![_G,,_D,_G,]4 z4 | !///![_D,_G,B,]4 !///![D,_A,C]4 | !///![_G,__B,]4 !///![D,=A,]4 | %13
 !///![G,,G,]2 [G,,G,] z !///![G,,G,]2 [=F,,=F,] z | !///![B,,,B,,]6 !///![C,,C,]2 | %15
 !///![D,,D,]8 | !///!!fermata![G,,D,]6 :| %17
V:5
 x2 | x8 | x8 | x8 | !///!x4!>(! !///!x4!>)! | x8 | x8 | x8 | x8 | x8 | x8 | x8 | x8 | x8 | x8 | %15
 x8 | x!f!!>(! x!>)!!p! x4 :| %17

